X:1
T:Title
L:1/8
M:2/4
K:Ab
V:1 treble nm="Grand Piano"
V:1
 z2[Q:1/4=100] AG | F2 F2 | F2 F2 | AA c2 | B2 GA | B2 G2 | AG FG | F=E G2 | F2 AG | F2 F2 | %10
 F2 F2 | AA c2 | B2 GA | B2 G2 | AG FG | F=E G2 | F2 F2 | A2 cc | B4- | B2 =E2 | G2 BB | A4- | %22
 A2 F2 | A2 cc | B4- | B2 =E2 | G2 BB | A4 | FG AG | F4 | FF d2 | c2 cB | AB cc | c4 | GA B2 | %35
 B2 BA | cB AG | F4- | F2 z2 |] %39

